file/unh.svg

<svg clip-rule="evenodd" fill-rule="evenodd" stroke-linejoin="round" stroke-miterlimit="1.41421" viewBox="0 0 560 400" xmlns="http://www.w3.org/2000/svg"><g fill-rule="nonzero" transform="matrix(1.67084 0 0 1.67084 -94.2689 -80.7017)"><path d="m224 95.1h-59.85v72c0 18.9 5.13 33.93 15.84 45.9 8.82 9.99 21.78 21.96 44.01 27.9 22.23-5.94 35.19-17.91 44.01-27.9 10.71-12.06 15.84-27 15.84-45.9v-72z" fill="#003594"/><path d="m190.25 203.91c-8.46-9.54-12.42-21.24-12.42-36.81v-58.32h46.17v117.81c-16.47-5.13-26.28-14.22-33.75-22.68z" fill="#fff"/><path d="m189.08 186.72v-60.21h13.5l9.18 26.64h.18v-26.64h12.06v60.21h-13.14l-9.54-31.23h-.18v31.23z" fill="#003594"/><path d="m246.23 126.42v23.58h-9.9v-23.58h-12.33v60.3h12.51v-24.3h9.9v24.3h12.51v-60.3z" fill="#fff"/></g></svg>

<?xml version="1.0" encoding="UTF-8" standalone="no"?>
<!DOCTYPE svg PUBLIC "-//W3C//DTD SVG 1.1//EN" "http://www.w3.org/Graphics/SVG/1.1/DTD/svg11.dtd">
<svg width="100%" height="100%" viewBox="0 0 560 400" version="1.1" xmlns="http://www.w3.org/2000/svg" xmlns:xlink="http://www.w3.org/1999/xlink" xml:space="preserve" xmlns:serif="http://www.serif.com/" style="fill-rule:evenodd;clip-rule:evenodd;stroke-linejoin:round;stroke-miterlimit:1.41421;">
    <g transform="matrix(1.67084,0,0,1.67084,-94.2689,-80.7017)">
        <path d="M224,95.1L164.15,95.1L164.15,167.1C164.15,186 169.28,201.03 179.99,213C188.81,222.99 201.77,234.96 224,240.9C246.23,234.96 259.19,222.99 268.01,213C278.72,200.94 283.85,186 283.85,167.1L283.85,95.1L224,95.1Z" style="fill:rgb(0,53,148);fill-rule:nonzero;"/>
        <path d="M190.25,203.91C181.79,194.37 177.83,182.67 177.83,167.1L177.83,108.78L224,108.78L224,226.59C207.53,221.46 197.72,212.37 190.25,203.91Z" style="fill:white;fill-rule:nonzero;"/>
        <path d="M189.08,186.72L189.08,126.51L202.58,126.51L211.76,153.15L211.94,153.15L211.94,126.51L224,126.51L224,186.72L210.86,186.72L201.32,155.49L201.14,155.49L201.14,186.72L189.08,186.72Z" style="fill:rgb(0,53,148);fill-rule:nonzero;"/>
        <path d="M246.23,126.42L246.23,150L236.33,150L236.33,126.42L224,126.42L224,186.72L236.51,186.72L236.51,162.42L246.41,162.42L246.41,186.72L258.92,186.72L258.92,126.42L246.23,126.42Z" style="fill:white;fill-rule:nonzero;"/>
    </g>
</svg>
